!!!!SEGMENT:36Konpira_c.krn
!!!OTL: 金毘羅
!!!OPR:Eiga Banso Kyokusyu,jidai-geki,zenpen
!!!YOY:1929
!!!ONB:Kokkei,Kenka
**kern
*clefG2
*C:
*M2/4
=1
4e
8f#L
8f#J
=2
8eL
8f#J
8eL
8f#J
=3
4a
8bL
8bJ
=4
8aL
8bJ
8aL
8bJ
=5
8cc#L
8bJ
8cc#L
8cc#J
=6
4cc#
4r
=7
8eeL
8eeJ
8cc#L
8bJ
=8
4ee
4ff#
=9
8gg#L
8gg#J
8ff#L
8gg#J
=10
8eeL
8eeJ
8ff#L
8eeJ
=11
8cc#L
8eeJ
8cc#L
8bJ
=12
8aL
8bJ
8cc#L
8cc#J
=13
8bL
8cc#J
8bL
8g#J
=14
4f#
8gnL
8gJ
=15
8f#L
8eJ
8cnL
8BJ
=:|!
*-
!!!ENC: Yukiko Yoden
!!!END: 2023/06/11
